X:400
T:Lady Burnside's Birth-Day
R:Strathspey
B:The Athole Collection
M:C
L:1/8
K:C Minor
G|c<c c>G E3G|B<B B>F D<F F>G|c<c c>G E<G G>g|e>c e/d/c/=B/ c2c:|
G|c<ce<c g<ce<c|B<Bd<B f<Bd<f|c<ce<c g<ce<f|g>e fe/d/ c2 c>G|
c<ce<c g<c e/f/g/e/|B<Bd<B f<B d/e/f/d/|g>ef>d e>cd>B|G>c e/d/c/=B/ c2c||

